X:1
T:Red Haired Boy, The
S:unknown, photocopy
M:2/2
Q:1/2=120
K:A
|:A2 | "A"EAAG ABcd | efec "D"d2cd | "A"edcB ABcA | "G"B=GEF G2 F2 |
"A"EAAG ABcd | efec "D"d2cd | "E7"eaab aged | "A"c2A2A2:|
|:ef | "Em"=ggfg e2fg | "D"a=gfe d2cd | "A"edcB ABcA | "Em"B=GEF G2F2 |
"A"EAAG ABcd | efec "D"d2cd | "E7"eaab aged | "A"c2A2A2:|
